X:1
T:G minor           Daniel Belknap, 1800
T:Anna Barbauld, 1792               77. 77.
T:Weary Pilgrim
T:Transcribed from Evangelical Harmony, 1800.
%%score [ 1 2 3 4 ]
L:1/8
Q:1/4=80
M:4/4
K:Bb
V:1 treble nm="Tr." snm="Tr."
V:2 treble nm="C." snm="C."
V:3 treble-8 nm="T." snm="T."
V:4 bass nm="B." snm="B."
V:1
"^1. Come,  said  Jesus'  sacred  voice,   Come and make my paths your choice.  I  will  guide  you   to     your  home,     Weary   pil–grim,  hi–ther  come." B3 c d3 c | %1
 B2 A2 A4 | z4 A3 A | d3 d cB A2 | G4 z4 | d3 c B3 A | (3GAB c2 d4 | z4 A3 A | B3 A G2 ^F2 | G8 |] %10
V:2
"^2. Thou  who, houseless, sole, forlorn,   Long hast borne the proud world's scorn,  Long hast roamed the barren waste, Weary    pil–grim, hi–ther  haste." D2 D2 D3 D | %1
 D2 F2 F4 | z4 F3 E | D3 D E2 D2 | D4 z4 | G2 G2 G3 F/E/ | D2 F2 F4 | z4 F3 A | G3 D E2 D2 | D8 |] %10
V:3
"^3. Ye  who,  tossed  on  beds  of  pain,     Seek for ease, but  seek  in   vain;      Ye,   by  fier – cer   an  –   guish  torn,     In  remorse  for  guilt  who mourn." G3 A B3 A | %1
 B2 c2 d4 | z4 c3 A | B3 A G2 ^F2 | G4 z4 | G3 A B3 c | d2 cB A4 | z4 d3 c | B3 d cB A2 | G8 |] %10
V:4
"^____________________________________________________________\nEdited by B. C. Johnston, 2017\nTitle changed from \nFuneral Ode\n.  Words changed; original words  were an ode \ncommemorating  the death of George Washington, in 1800.""^4. Hi–ther come,  for  here  is   found     Balm that flows for every wound,    Peace that ev – er   shall     en – dure,      Rest  e – ter–nal,  sa–cred,  sure." G,2 G,2 G,3 ^F, | %1
 G,2 F,E, D,4- | D,4 F,3 F, | G,3 G, C,2 D,2 | G,,8 | G,2 G,2 G,3 A, | B,2 A,G, D,4- | D,4 D,3 F, | %8
 G,3 G, C,2 D,2 | G,,8 |] %10

